svg/color/wbnb.svg

<?xml version="1.0" encoding="UTF-8"?>
<svg xmlns="http://www.w3.org/2000/svg" xmlns:xlink="http://www.w3.org/1999/xlink" width="32px" height="32px" viewBox="0 0 32 32" version="1.1">
<g id="surface1">
<path style=" stroke:none;fill-rule:evenodd;fill:rgb(94.117647%,72.54902%,4.313725%);fill-opacity:1;" d="M 16 0 C 24.835938 0 32 7.164062 32 16 C 32 24.835938 24.835938 32 16 32 C 7.164062 32 0 24.835938 0 16 C 0 7.164062 7.164062 0 16 0 Z M 16 0 "/>
<path style=" stroke:none;fill-rule:nonzero;fill:rgb(100%,100%,100%);fill-opacity:1;" d="M 8.792969 16 L 8.804688 20.230469 L 12.398438 22.347656 L 12.398438 24.824219 L 6.703125 21.480469 L 6.703125 14.761719 Z M 8.792969 11.769531 L 8.792969 14.234375 L 6.699219 12.996094 L 6.699219 10.53125 L 8.792969 9.292969 L 10.898438 10.53125 Z M 13.902344 10.53125 L 15.996094 9.292969 L 18.097656 10.53125 L 15.996094 11.769531 Z M 13.902344 10.53125 "/>
<path style=" stroke:none;fill-rule:nonzero;fill:rgb(100%,100%,100%);fill-opacity:1;" d="M 10.304688 19.355469 L 10.304688 16.875 L 12.398438 18.117188 L 12.398438 20.582031 Z M 13.902344 23.234375 L 15.996094 24.472656 L 18.097656 23.234375 L 18.097656 25.699219 L 15.996094 26.9375 L 13.902344 25.699219 Z M 21.101562 10.53125 L 23.195312 9.292969 L 25.296875 10.53125 L 25.296875 12.996094 L 23.195312 14.234375 L 23.195312 11.769531 Z M 23.195312 20.230469 L 23.207031 16 L 25.300781 14.761719 L 25.300781 21.480469 L 19.601562 24.820312 L 19.601562 22.34375 Z M 23.195312 20.230469 "/>
<path style=" stroke:none;fill-rule:nonzero;fill:rgb(100%,100%,100%);fill-opacity:1;" d="M 21.695312 19.355469 L 19.601562 20.582031 L 19.601562 18.117188 L 21.695312 16.875 Z M 21.695312 19.355469 "/>
<path style=" stroke:none;fill-rule:nonzero;fill:rgb(100%,100%,100%);fill-opacity:1;" d="M 21.695312 12.644531 L 21.707031 15.125 L 18.101562 17.238281 L 18.101562 21.480469 L 16.007812 22.707031 L 13.914062 21.480469 L 13.914062 17.238281 L 10.308594 15.125 L 10.308594 12.644531 L 12.410156 11.40625 L 15.992188 13.535156 L 19.597656 11.40625 L 21.703125 12.644531 Z M 10.304688 8.417969 L 15.996094 5.0625 L 21.695312 8.417969 L 19.601562 9.65625 L 15.996094 7.53125 L 12.398438 9.65625 Z M 10.304688 8.417969 "/>
</g>
</svg>

<svg xmlns="http://www.w3.org/2000/svg" width="32" height="32" viewBox="0 0 32 32"><path d="M16 0c8.836 0 16 7.164 16 16s-7.164 16-16 16S0 24.836 0 16 7.164 0 16 0zm0 0" fill-rule="evenodd" fill="#f0b90b"/><path d="M8.793 16l.012 4.23 3.593 2.118v2.476L6.703 21.48v-6.718zm0-4.23v2.464l-2.094-1.238v-2.465l2.094-1.238 2.105 1.238zm5.11-1.239l2.093-1.238 2.102 1.238-2.102 1.239zm0 0" fill="#fff"/><path d="M10.305 19.355v-2.48l2.093 1.242v2.465zm3.597 3.88l2.094 1.238 2.102-1.239V25.7l-2.102 1.238-2.094-1.238zm7.2-12.704l2.093-1.238 2.102 1.238v2.465l-2.102 1.238V11.77zm2.093 9.7L23.207 16l2.094-1.238v6.718l-5.7 3.34v-2.476zm0 0" fill="#fff"/><path d="M21.695 19.355l-2.093 1.227v-2.465l2.093-1.242zm0 0" fill="#fff"/><path d="M21.695 12.645l.012 2.48-3.605 2.113v4.242l-2.094 1.227-2.094-1.227v-4.242l-3.605-2.113v-2.48l2.101-1.239 3.582 2.13 3.606-2.13 2.105 1.239zm-11.39-4.227l5.691-3.355 5.7 3.355-2.094 1.238-3.606-2.125-3.598 2.125zm0 0" fill="#fff"/></svg>
